X:1
T:Title
%%score 1 2 3 4
L:1/8
Q:1/4=120
M:4/4
K:C
V:1 treble nm="Grand Piano"
V:2 treble nm="Grand Piano"
V:3 bass nm="Grand Piano, Melody"
V:4 bass nm="Grand Piano"
V:1
 z4 A4 | e2 ed c2 A2 | B2 BA G2 E2 | c3 B c2 e2 | d2 cB A4- | A8 | z8 | z4 z2 e2 | g2 g2 dc B2 | %9
 A2 A2 A2 c2 | G6 E2 | A3 B c2 e2 | d2 d2 dc B2 | c3 B c2 e2 | d2 cB A4- | A8 |] %16
V:2
 z4 E4 | E2 E2 G2 EF | G2 G2 G2 G2 | A3 B A2 GF | E2 E2 E4- | E8 | z8 | z4 z2 E2 | G2 G2 GA B2 | %9
 A2 A2 E2 E2 | E6 E2 | E3 G A2 EF | G2 G2 G2 G2 | A3 B A2 G2 | F2 E2 E4- | E8 |] %16
V:3
 z4 E,4 | A,2 B,A, G,2 B,[K:treble]C | D2 DC B,2 D2 | E3 D E2[K:bass] B,2 | A,2 A,2 A,4- | A,8 | %6
 z4 z2[K:treble] C2 | E2 E2 EF G2 | D2 D2 DC B,2 | C2 C2 CD E2 | B,2 B,2 B,A, G,2 | %11
 C3 B, A,2[K:treble] C2 | D3 C B,C D2 | E3 D E2[K:bass] B,2 | A,2 A,2 A,4- | A,8 |] %16
V:4
 z4 A,,4 | A,,2 E,2 E,2 E,C, | D,2 G,2 G,2 G,2 | A,3 G, E,2 E,C, | D,2 E,2 A,,4- | A,,6 E,2 | %6
 A,2 A,2 A,2 A,2 | C2 C2 C2 C2 | G,2[K:bass] G,2 G,2 G,2 | A,2 A,2 A,2 A,2 | E,6 E,2 | %11
 A,3 G, A,2 C2 | G,2 G,2 G,2 G,2 | A,3 G, E,2 E,C, | D,2 E,2 A,,4- | A,,8 |] %16

